usr/share/icons/biglinux-icons-material/22/actions/wallet-open.svg

<svg xmlns="http://www.w3.org/2000/svg" viewBox="0 0 22 22">
  <defs id="defs3051">
    <style type="text/css" id="current-color-scheme">
      .ColorScheme-Text {
        color:#dedede;
      }
      </style>
  </defs>
 <path 
     style="fill:currentColor;fill-opacity:1;stroke:none" 
     d="m 3.0000001,3.0000001 0,4 -1,0 0,1 0,9.9999999 c 0,0.554 0.446,1 1,1 L 19,19 l 1,0 0,-1 0,-9.9999999 c 0,-0.554 -0.446,-1 -1,-1 l -5,0 0,-4 z m 1,1 8.9999999,0 0,3 -2.507812,0 c -0.470484,-0.6273203 -1.2080451,-0.9975468 -1.9921881,-1 -0.786206,6.144e-4 -1.526323,0.3710349 -1.9980467,1 l -2.5019531,0 z m -1,4 1,0 2.0507812,0 4.8945307,0 2.054688,0 1,0 5,0 L 19,11 l -2,0 -5,0 c -1.108,0 -2.0000001,0.892 -2.0000001,2 0,1.108 0.8920001,2 2.0000001,2 l 5,0 2,0 0,3 -15.9999999,0 z M 13,12 c 0.552285,0 1,0.447715 1,1 0,0.552285 -0.447715,1 -1,1 -0.552285,0 -1,-0.447715 -1,-1 0,-0.552285 0.447715,-1 1,-1 z"
	 class="ColorScheme-Text"
     />
</svg>

<svg xmlns="http://www.w3.org/2000/svg" viewBox="0 0 22 22"><path d="M3 3v4H2v11c0 .554.446 1 1 1h17V8c0-.554-.446-1-1-1h-5V3zm1 1h9v3h-2.508A2.5 2.5 0 0 0 8.5 6a2.5 2.5 0 0 0-1.998 1H4zM3 8h16v3h-7c-1.108 0-2 .892-2 2s.892 2 2 2h7v3H3zm10 4a1 1 0 1 1 0 2 1 1 0 0 1 0-2z" style="fill:currentColor;fill-opacity:1;stroke:none;color:#dedede"/></svg>
